X:468140
T:Barbara's Jig
H:
C: 
B: Scots Guards 
O:Kevin Fraser
Z:Kevin Fraser
Q:3/8=120
K:HP
M:6/8
L:1/8
R:Jig
U: R = ///
U: r = //
U: V = !accent!
V:M gstem=up stem=down name="Melody" sname = "Melody"
V:H gstem=up stem=down name="Harmony"
V:C gstem=up stem=down name="C-Harmony"
V:S gstem=up stem=down dyn=up stafflines=1 clef=perc middle=G name="Snare" sname="Snare"
V:B gstem=up stem=down clef=none dyn=up name="Bass"
V:T gstem=up stem=down clef=none dyn=up name="Tenor"
V:BB gstem=up stem=down name="Brass Bass" sname="ABCD-C" transpose=-1  octave=-1 clef=bass
V:BC gstem=up stem=down name="Brass Chord" sname="ABCD-D" transpose=-1
V:BD gstem=up stem=down name="Brass Chord 2" sname="ABCD-B" transpose=-1
V:P gstem=up stem=down name="Piano" octave=-1
I:MIDI=program 110
%%MIDI gracedivider 4
%%MIDI gchord
%%MIDI beatstring 
% %alignbars 80
I:linebreak $
%%score {M}
%%MIDI program 109 #bagpipes
%%MIDI vol 100
[V:M][:A | {Gdc}d3 {ag}a3 | {fg}f2e {g}fed | {gBd}B2e {g}e2{GdG}e | {g}B{d}B{e}B {g}c{d}B{e}A | $
[V:M]  x  | {Gdc}d3 {ag}a3 | {fg}f2e {g}fed | {gBd}B2e {g}edB | {Gdc}d3 {gdG}d2 :] $
[V:M][:A | {Gdc}d3 {g}dAd | {g}dAd {g}fed | {gBd}B2e {g}e2{GdG}e | {g}B{d}B{e}B {g}c{d}B{e}A | $
[V:M]    | {Gdc}d3 {g}dAd | {g}dAd {g}fed | | {gBd}B2e {g}edB | {Gdc}d3 {gdG}d2 :] $
[V:M][:A | {Gdc}d3 {ag}a3 | {g}dfd {g}ed{c}d | {gBd}B2e {g}e2{GdG}e | {g}B{d}B{e}B {g}c{d}B{e}A | $
[V:M]  x  | {Gdc}d3 {ag}a3 | {g}dfd {g}ed{c}d | {gBd}B2e {g}edB | {Gdc}d3 {gdG}d2 :] $
[V:M][:A | {Gdc}d3 {g}AdA | {g}dAd {g}fed | {gBd}B2e {g}e2{GdG}e | {g}B{d}B{e}B {g}c{d}B{e}A | $
[V:M]    | {Gdc}d3 {g}dAA | {g}dAd {g}fed | | {gBd}B2e {g}edB | {Gdc}d3 {gdG}d2 :] $

